packages/assets/static/images/icons/login.svg

<svg width="24" height="24" viewBox="0 0 24 24" xmlns="http://www.w3.org/2000/svg">
<path d="M14.7806 12.5306L11.0306 16.2806C10.9609 16.3503 10.8782 16.4056 10.7872 16.4433C10.6961 16.481 10.5985 16.5004 10.5 16.5004C10.4015 16.5004 10.3039 16.481 10.2128 16.4433C10.1218 16.4056 10.0391 16.3503 9.96937 16.2806C9.89969 16.2109 9.84442 16.1282 9.8067 16.0372C9.76899 15.9461 9.74958 15.8485 9.74958 15.75C9.74958 15.6515 9.76899 15.5539 9.8067 15.4628C9.84442 15.3718 9.89969 15.2891 9.96937 15.2194L12.4397 12.75H3.75C3.55109 12.75 3.36032 12.671 3.21967 12.5303C3.07902 12.3897 3 12.1989 3 12C3 11.8011 3.07902 11.6103 3.21967 11.4697C3.36032 11.329 3.55109 11.25 3.75 11.25H12.4397L9.96937 8.78063C9.82864 8.63989 9.74958 8.44902 9.74958 8.25C9.74958 8.05098 9.82864 7.86011 9.96937 7.71937C10.1101 7.57864 10.301 7.49958 10.5 7.49958C10.699 7.49958 10.8899 7.57864 11.0306 7.71937L14.7806 11.4694C14.8504 11.539 14.9057 11.6217 14.9434 11.7128C14.9812 11.8038 15.0006 11.9014 15.0006 12C15.0006 12.0986 14.9812 12.1962 14.9434 12.2872C14.9057 12.3783 14.8504 12.461 14.7806 12.5306ZM20.25 3H14.25C14.0511 3 13.8603 3.07902 13.7197 3.21967C13.579 3.36032 13.5 3.55109 13.5 3.75C13.5 3.94891 13.579 4.13968 13.7197 4.28033C13.8603 4.42098 14.0511 4.5 14.25 4.5H19.5V19.5H14.25C14.0511 19.5 13.8603 19.579 13.7197 19.7197C13.579 19.8603 13.5 20.0511 13.5 20.25C13.5 20.4489 13.579 20.6397 13.7197 20.7803C13.8603 20.921 14.0511 21 14.25 21H20.25C20.4489 21 20.6397 20.921 20.7803 20.7803C20.921 20.6397 21 20.4489 21 20.25V3.75C21 3.55109 20.921 3.36032 20.7803 3.21967C20.6397 3.07902 20.4489 3 20.25 3Z"/>
</svg>

<svg viewBox="0 0 24 24" xmlns="http://www.w3.org/2000/svg" aria-hidden="true" fill="currentColor"><path d="m14.78 12.53-3.75 3.75a.75.75 0 1 1-1.06-1.06l2.47-2.47H3.75a.75.75 0 1 1 0-1.5h8.69L9.97 8.78a.75.75 0 0 1 1.06-1.06l3.75 3.75a.747.747 0 0 1 0 1.06M20.25 3h-6a.75.75 0 1 0 0 1.5h5.25v15h-5.25a.75.75 0 1 0 0 1.5h6a.75.75 0 0 0 .75-.75V3.75a.75.75 0 0 0-.75-.75"/></svg>
